X:224 
T:Wheels of the World, The  
B:CRE3.034 (RothaÃÂÃÂÃÂÃÂ­ an Domhain)
F:file ID: cre.3/224wheels
R:jig
Q:160
M:6/8
L:1/8
K:G
G|FDD ADD|BGB c2A|Bcd ecA|ABG FED|
"5"~G3 AGA|BGB c2A|Bcd ecA|AGF G2:|
z|"9"GB/c/d gdB|dBG BcA|Bcd ecA|ABG FED|
"13"GB/c/d gdB|dBG BcA|Bcd ecA|AGF G3|
"17"Bda gdB|dBG BcA|Bcd ecA|ABG FED|
"21"G3 AGA|BGB c2A|Bcd ecA|AGF HG3 |]


%%%

